X:56
T:Ladies Choice. THO5.056, The
M:6/8
L:1/8
B:Thompson's Complete Collection of 200 Favourite Dances Vol.5
F:https://www.libraryofdance.org/manuals/1780c-Thompson-Compleat-5.pdf
Z:vmp. Peter Dunk 2024
Q:3/8=110
K:G
BdB G2B|c2e A2c|BdB G2B|AFD G3:|
|:dBd g2d|BAG AFD|dBd g2d|cBA G3:|
|:DED E2c|F2d G2e|DED E2c|BcA G3:|
|:gbg g2d|BAG AFD|gbg g2d|cBA G3:|
W:
W:Change sides ./.
W:back again ./:
W:First Gent turn the 2nd Lady :/.
W:2nd Lady do the same :/:
W:Lead down one Couple, up again and cast off :./.
W:Hands  four round :./:

